X: 18
T: Bannister's Budget
M:2/4
L:1/8
B:Goulding & Co. - Twenty Four Country Dances for the Year 1808 (London)
N:"With proper Tune & Directions to each Dance (as they may be
N:performed at Court, Bath, and all Public Assemblys."
Z:Transcribed and edited by Flynn Titford-Mock
Z:abcs's:AK/Fiddler's Companion
K:F
e/f/|af/g/ ff|af/g/ ff|dg/a/ bg|fedc|af/g/ ff|af/g/ ff|gb a/g/f/e/|f2 f:|
|:B|(Ac).c.c|(Bd).d.d|fedc|e/f/g/e/ fB|Accc|Bddd|bgec|f2f:||

%%sep 1 1 500
